resources/icons/16px/strikethrough.svg

<svg xmlns="http://www.w3.org/2000/svg" viewBox="0 0 16 16">
  <path d="M14 7H8.65c-.38-.09-.73-.18-1.04-.26s-.49-.13-.54-.14c-.43-.11-.79-.29-1.05-.52-.27-.23-.4-.55-.4-.95q0-.435.21-.72c.21-.285.32-.34.54-.46q.33-.165.72-.24c.26-.05.52-.07.77-.07.74 0 1.36.15 1.84.46.32.2.55.5.68.9h2.22c-.06-.33-.17-.64-.32-.92-.25-.45-.59-.84-1.02-1.15s-.93-.54-1.49-.7S8.59 2 7.95 2c-.55 0-1.1.07-1.63.2-.54.13-1.02.34-1.45.62q-.63.42-1.02 1.05t-.39 1.5c0 .3.04.59.13.88q.12.39.39.75H2c-.55 0-1 .45-1 1s.45 1 1 1h7.13c.25.07.49.14.71.22.25.09.48.23.7.44.21.21.32.53.32.97 0 .21-.05.43-.14.63-.09.21-.24.39-.45.55q-.315.24-.81.39t-1.2.15c-.44 0-.84-.05-1.21-.14s-.7-.24-.99-.43c-.29-.2-.51-.45-.67-.76-.01 0-.01-.01-.02-.02H3.14a3.68 3.68 0 0 0 1.39 2.03c.46.34 1 .58 1.62.74.61.15 1.27.23 1.97.23.61 0 1.2-.07 1.79-.2.58-.13 1.11-.34 1.56-.63q.69-.435 1.11-1.11c.28-.45.42-1 .42-1.64q0-.45-.15-.9c-.05-.19-.13-.36-.22-.52H14c.55 0 1-.45 1-1s-.45-1-1-1"/>
</svg>

<?xml version="1.0" encoding="utf-8"?>
<!-- Generator: Adobe Illustrator 22.0.1, SVG Export Plug-In . SVG Version: 6.00 Build 0)  -->
<svg version="1.1" id="Layer_1" xmlns="http://www.w3.org/2000/svg" xmlns:xlink="http://www.w3.org/1999/xlink" x="0px" y="0px"
	 viewBox="0 0 16 16" enable-background="new 0 0 16 16" xml:space="preserve">
<g id="strikethrough_1_">
	<g>
		<path fill-rule="evenodd" clip-rule="evenodd" d="M14,7H8.65C8.27,6.91,7.92,6.82,7.61,6.74C7.3,6.66,7.12,6.61,7.07,6.6
			C6.64,6.49,6.28,6.31,6.02,6.08c-0.27-0.23-0.4-0.55-0.4-0.95c0-0.29,0.07-0.53,0.21-0.72s0.32-0.34,0.54-0.46
			c0.22-0.11,0.46-0.19,0.72-0.24c0.26-0.05,0.52-0.07,0.77-0.07c0.74,0,1.36,0.15,1.84,0.46C10.02,4.3,10.25,4.6,10.38,5h2.22
			c-0.06-0.33-0.17-0.64-0.32-0.92c-0.25-0.45-0.59-0.84-1.02-1.15c-0.43-0.31-0.93-0.54-1.49-0.7S8.59,2,7.95,2
			C7.4,2,6.85,2.07,6.32,2.2C5.78,2.33,5.3,2.54,4.87,2.82C4.45,3.1,4.11,3.45,3.85,3.87c-0.26,0.42-0.39,0.92-0.39,1.5
			c0,0.3,0.04,0.59,0.13,0.88C3.67,6.51,3.8,6.76,3.98,7H2C1.45,7,1,7.45,1,8c0,0.55,0.45,1,1,1h7.13c0.25,0.07,0.49,0.14,0.71,0.22
			c0.25,0.09,0.48,0.23,0.7,0.44c0.21,0.21,0.32,0.53,0.32,0.97c0,0.21-0.05,0.43-0.14,0.63c-0.09,0.21-0.24,0.39-0.45,0.55
			c-0.21,0.16-0.48,0.29-0.81,0.39c-0.33,0.1-0.73,0.15-1.2,0.15c-0.44,0-0.84-0.05-1.21-0.14c-0.37-0.09-0.7-0.24-0.99-0.43
			c-0.29-0.2-0.51-0.45-0.67-0.76C5.38,11.02,5.38,11.01,5.37,11H3.14c0.07,0.27,0.17,0.52,0.29,0.75c0.27,0.52,0.64,0.94,1.1,1.28
			s1,0.58,1.62,0.74C6.76,13.92,7.42,14,8.12,14c0.61,0,1.2-0.07,1.79-0.2c0.58-0.13,1.11-0.34,1.56-0.63
			c0.46-0.29,0.83-0.66,1.11-1.11c0.28-0.45,0.42-1,0.42-1.64c0-0.3-0.05-0.6-0.15-0.9C12.8,9.33,12.72,9.16,12.63,9H14
			c0.55,0,1-0.45,1-1C15,7.45,14.55,7,14,7z"/>
	</g>
</g>
</svg>
